!!!COM:	Busnoys, Antoine
!!!CDT:	~1430///-1492/11/06
!!!OTL:	Lautrier la pieca
!!!AGN:	Song; Chanson
!!!SCT:	Bus3034
!!!SCA:	Bus3034
!!!voices:	4
**kern	**kern	**kern	**kern
*staff4	*staff3	*staff2	*staff1
*Ivox	*Ivox	*Ivox	*Ivox
*I"Bassus	*I"Tenor	*I"Altus	*I"Superius
*I'B	*I'T	*I'A	*I'S
*>[A,B,C,D]	*>[A,B,C,D]	*>[A,B,C,D]	*>[A,B,C,D]
*>A	*>A	*>A	*>A
*clefGv2	*clefGv2	*clefGv2	*clefG2
*k[]	*k[]	*k[]	*k[]
*M2/1	*M2/1	*M2/1	*M2/1
*met(C|)	*met(C|)	*met(C|)	*met(C|)
=1-	=1-	=1-	=1-
!	!	!	!LO:TX:Z=42:t=Form&colon; aa'R/bb/a'a'R
0d	0r	0a	[0dd
=2	=2	=2	=2
1d	0r	1f	0dd]
1d	.	1a	.
=3	=3	=3	=3
1.e	0r	1.g	1b
.	.	.	1cc
4d	.	4f	.
4c	.	4e	.
=4	=4	=4	=4
1B	0r	1d	1dd
1c	.	1e	1cc
=5	=5	=5	=5
1.d	1d	1.f	1b
.	1d	.	1a
4c	.	2e	.
4B	.	.	.
=6	=6	=6	=6
1B	1d	1f	0dd
1B	1d	1g	.
=7	=7	=7	=7
1.A	1.e	1.a	1.cc
2G	2d	4g	2b
.	.	4f	.
=8	=8	=8	=8
1A	1c	1e	1a
1F	1c	1f	1a
=9	=9	=9	=9
1r	1c	1e	0g
1G	1B	1d	.
=10	=10	=10	=10
2E	1c	0e	1r
2.C	.	.	.
.	1r	.	1g
4D	.	.	.
2E	.	.	.
=11	=11	=11	=11
2D	1f	0r	1a
2.F	.	.	.
.	1f	.	2.cc
4G	.	.	.
[2A	.	.	.
.	.	.	4b
=12	=12	=12	=12
2A]	1f	0a	2cc
2F	.	.	2dd
[1D	1f	.	2cc
.	.	.	2b
=13	=13	=13	=13
2D]	1f	1f	1a
2E	.	.	.
1F	1f	1a	1d
=14	=14	=14	=14
1C	1.e	1.g	2r
.	.	.	1g
1c	.	.	.
.	2f	4f	2a
.	.	4e	.
=15	=15	=15	=15
1B	1.g	1d	1.b
1G	.	1e	.
.	4f	.	2cc
.	4e	.	.
=16	=16	=16	=16
1r	1d	1.f	2.dd
.	.	.	4cc
1D	1f	.	2a
.	.	4e	2b
.	.	4d	.
=17	=17	=17	=17
0A	0e	1c	2a
.	.	.	2.cc
.	.	1c	.
.	.	.	4b
.	.	.	4a
.	.	.	4g
=18	=18	=18	=18
0D	0d	0d	0f
!!LO:LB:i:g=z
=19:|!	=19:|!	=19:|!	=19:|!
*>B	*>B	*>B	*>B
*clefGv2	*clefGv2	*clefGv2	*clefG2
*k[]	*k[]	*k[]	*k[]
*M2/1	*M2/1	*M2/1	*M2/1
*met(C|)	*met(C|)	*met(C|)	*met(C|)
1F	1A	1d	0r
1E	1B	1e	.
=20	=20	=20	=20
1F	1A	1d	1a
1G	[1d	1g	1b
=21	=21	=21	=21
0D	1d]	1f	1a
.	1f	[1a	[1dd
=22	=22	=22	=22
0A	0e	2a]	2dd]
.	.	2g	2b
.	.	1e	1cc#i
=23	=23	=23	=23
0Dl	0dl	0f 0al	0ddl
!!LO:LB:i:g=z
=24||!|:	=24||!|:	=24||!|:	=24||!|:
*>C	*>C	*>C	*>C
*clefGv2	*clefGv2	*clefGv2	*clefG2
*k[]	*k[]	*k[]	*k[]
*M2/1	*M2/1	*M2/1	*M2/1
*met(C|)	*met(C|)	*met(C|)	*met(C|)
0r	0r	1d	0a
.	.	1d	.
=25	=25	=25	=25
1G	0r	1d	1b
1F	.	1d	[1dd
=26	=26	=26	=26
1G	0r	1e	1dd]
1A	.	1e	1cc#i
=27	=27	=27	=27
0D	1d	0f	1.dd
.	1d	.	.
.	.	.	4cc
.	.	.	4b
=28	=28	=28	=28
1r	1d	1r	0a
1D	1d	2.f	.
.	.	4d	.
=29	=29	=29	=29
1.A	1e	0c	0r
.	1e	.	.
2G	.	.	.
=30	=30	=30	=30
1F	[0f	0r	[0a
1D	.	.	.
=31	=31	=31	=31
1F	1f]	0r	1a]
1G	2.e	.	1b
.	4d	.	.
=32	=32	=32	=32
1A	0c	1e	1cc
1c	.	1e	1a
=33	=33	=33	=33
2B	0r	1.f	2b
1A	.	.	2.cc
.	.	.	4a
2G	.	4e	2b
.	.	4d	.
=34	=34	=34	=34
2A	1e	1c	2cc
4G	.	.	4b
4F	.	.	4a
1E	1e	1c	1g
=35	=35	=35	=35
1r	1.f	0d	2f
.	.	.	1a
1D	.	.	.
.	4e	.	4g
.	4d	.	4f
=36	=36	=36	=36
1A	1c	0r	2e
.	.	.	2d
1A	1c	.	1e
=37	=37	=37	=37
0D	0d	0r	1d
.	.	.	1r
!!LO:LB:i:g=z
=38:|!|:	=38:|!|:	=38:|!|:	=38:|!|:
*>D	*>D	*>D	*>D
*clefGv2	*clefGv2	*clefGv2	*clefG2
*k[]	*k[]	*k[]	*k[]
*M2/1	*M2/1	*M2/1	*M2/1
*met(C|)	*met(C|)	*met(C|)	*met(C|)
0d	0r	0a	1.f
.	.	.	2g
=39	=39	=39	=39
1d	0r	1f	1a
1d	.	1a	1f
=40	=40	=40	=40
1B-	0r	1.g	1d
1c	.	.	1e
.	.	4f	.
.	.	4e	.
=41	=41	=41	=41
1d	0r	1d	2f
.	.	.	1d
1A	.	1e	.
.	.	.	2c#i
=42	=42	=42	=42
1r	1d	1.f	1d
[1B-i	1d	.	1r
.	.	2e	.
=43	=43	=43	=43
2B-]	1d	1f	0dd
2B-i	.	.	.
1B-i	1d	1g	.
=44	=44	=44	=44
1.A	1.e	1.a	1.cc
2A	2d	4g	2b
.	.	4f	.
=45	=45	=45	=45
1A	1c	1e	1a
1F	1c	1f	1a
=46	=46	=46	=46
1r	1c	1e	1g
1G	1B	1d	1r
=47	=47	=47	=47
2.E	1c	0e	1g
4F	.	.	.
2G	1r	.	2.cc
2A	.	.	.
.	.	.	4b
=48	=48	=48	=48
2r	1f	0r	1cc
2A	.	.	.
1D	1f	.	1dd
=49	=49	=49	=49
1r	1f	0a	1cc
[1F	1f	.	1a
=50	=50	=50	=50
2F]	1f	1f	1r
2.D	.	.	.
.	1f	1a	1f
4E	.	.	.
2F	.	.	.
=51	=51	=51	=51
1C	1e	1.g	1cc
1G	2r	.	2b
.	2f	4f	[2b
.	.	4e	.
=52	=52	=52	=52
1B	1.g	1d	2b]
.	.	.	2a
1c	.	1e	1g
.	4f	.	.
.	4e	.	.
=53	=53	=53	=53
2d	1d	1.f	2f
2.B-i	.	.	2b-i
.	1f	.	2a
4c	.	.	.
2d	.	4e	[2f
.	.	4d	.
=54	=54	=54	=54
1.A	0e	1c	4f]
.	.	.	4g
.	.	.	2.a
.	.	1c	.
.	.	.	4g
2G	.	.	2e
=55	=55	=55	=55
1F	0d	0d	0f
1D	.	.	.
=56	=56	=56	=56
1F	1A	1d	0r
1E	1B	1e	.
=57	=57	=57	=57
1F	1A	1d	1a
1G	[1d	1g	1b
=58	=58	=58	=58
0D	1d]	1f	1a
.	1f	[1a	[1dd
=59	=59	=59	=59
0A	0e	2a]	1dd]
.	.	2g	.
.	.	1e	1cc#i
=60	=60	=60	=60
0Dl	0dl	0d 0fl	0ddl
==:|!	==:|!	==:|!	==:|!
*-	*-	*-	*-
!!!RDF**kern: l=long note in original notation
!!!RDF**kern: i=editorial accidental
!!!ENC:	Chris Gage 04-13-2015
!!!END:	2015/05/05/
!!!EED:	Jesse Rodin
!!!EEV:	2015/09/21/
!!!ONB:	Translated from MusicXML and edited on 2015/09/21/ by Craig Sapp
!!muse2ps: C^@{COM}^i2I150v85,85,85,150Q16
